!!!OTL: NUN LAT'T UNS SING'N DAT ABENDLIED, DENN WIE MOETEN GAHN
!!!ARE: Europa, Mitteleuropa, Deutschland, Westfalen
!!!SCT: Z0155
!!!YEM: Copyright 1995, estate of Helmut Schaffrath.
**kern
*ICvox
*Ivox
*M2/4
*k[f#]
*G:
{8d
=1
8g
8a
8b
8cc
=2
8dd
8dd
8dd
8b
=3
8cc
16b
16cc
8dd
8b
=4
4.g}
{8d
=5
8g
8a
8b
8cc
=6
8dd
8dd
8dd
8b
=7
8cc
16b
16cc
8dd
8b
=8
4.g}
{8b
=9
8cc
8cc
8cc
8a
=10
4b
8b
8g
=11
8a
16b
16cc
8dd
8b
=12
4g
8r}
==
!!!AGN: Erzaehlung, lustige Romanze
!!!ONB: ESAC (Essen Associative Code) Database: ZUCCAL
!!!AMT: simple duple
!!!AIN: vox
!!!EED: Helmut Schaffrath
!!!EEV: 1.0
*-
